resources/icons/16px/small-info-sign.svg

<svg width="16" height="16" viewBox="0 0 16 16" fill="none" xmlns="http://www.w3.org/2000/svg">
<path d="M14 8C14 11.3137 11.3137 14 8 14C4.68629 14 2 11.3137 2 8C2 4.68629 4.68629 2 8 2C11.3137 2 14 4.68629 14 8ZM9 4H7V6H9V4ZM9 7H6V8H7V11H6V12H10V11H9V7Z" fill="black"/>
</svg>

<svg xmlns="http://www.w3.org/2000/svg" viewBox="0 0 16 16">
  <path d="M14 8A6 6 0 1 1 2 8a6 6 0 0 1 12 0M9 4H7v2h2zm0 3H6v1h1v3H6v1h4v-1H9z"/>
</svg>
